dist/img/advantages/02.svg

<?xml version="1.0" encoding="UTF-8"?> <svg xmlns="http://www.w3.org/2000/svg" width="300" height="300" viewBox="0 0 300 300" fill="none"> <g clip-path="url(#clip0)"> <path d="M68.6558 242.559H31.7656C29.219 242.559 27.1543 244.623 27.1543 247.17V284.06C27.1543 286.607 29.219 288.671 31.7656 288.671H68.6558C71.2023 288.671 73.267 286.607 73.267 284.06V247.17C73.267 244.623 71.2029 242.559 68.6558 242.559ZM64.0445 279.449H36.3768V251.781H64.0445V279.449Z" fill="#ffffff"></path> <path d="M137.83 228.723H100.939C98.3928 228.723 96.3281 230.787 96.3281 233.334V284.058C96.3281 286.605 98.3928 288.669 100.939 288.669H137.83C140.376 288.669 142.441 286.605 142.441 284.058V233.334C142.441 230.787 140.377 228.723 137.83 228.723ZM133.218 279.447H105.551V237.945H133.218V279.447Z" fill="#ffffff"></path> <path d="M206.996 210.273H170.105C167.559 210.273 165.494 212.338 165.494 214.885V284.054C165.494 286.6 167.559 288.665 170.105 288.665H206.996C209.542 288.665 211.607 286.6 211.607 284.054V214.885C211.607 212.338 209.543 210.273 206.996 210.273ZM202.384 279.443H174.717V219.496H202.384V279.443Z" fill="#ffffff"></path> <path d="M276.164 168.781H239.273C236.727 168.781 234.662 170.846 234.662 173.393V284.063C234.662 286.61 236.727 288.674 239.273 288.674H276.164C278.71 288.674 280.775 286.61 280.775 284.063V173.393C280.775 170.845 278.711 168.781 276.164 168.781ZM271.552 279.452H243.885V178.004H271.552V279.452Z" fill="#ffffff"></path> <path d="M257.723 53.4924H246.739L247.291 52.3868C250.793 45.3834 247.954 36.8676 240.95 33.3659C234.324 30.0532 226.265 32.3998 222.453 38.7513L216.367 48.8961L210.281 38.7513C206.251 32.0378 197.541 29.863 190.828 33.8933C184.478 37.7051 182.133 45.7621 185.443 52.3868L185.996 53.4924H174.719C172.172 53.4924 170.107 55.5571 170.107 58.1036V81.16C170.107 83.7066 172.172 85.7713 174.719 85.7713H179.33V127.273C179.33 129.819 181.395 131.884 183.941 131.884H248.499C251.046 131.884 253.11 129.819 253.11 127.273V85.7713H257.722C260.268 85.7713 262.333 83.7066 262.333 81.16V58.1036C262.334 55.5565 260.27 53.4924 257.723 53.4924ZM202.387 122.661H188.554V85.7713H202.387V122.661ZM202.387 76.5487H179.331V62.7149H202.387V76.5487ZM196.309 53.4924L193.694 48.262C192.47 45.8152 193.461 42.8386 195.908 41.6143C198.224 40.4557 201.042 41.2759 202.374 43.4974L208.369 53.4924H196.309ZM220.833 122.661H211.61V85.7713H220.833V122.661ZM220.833 76.5487H211.61V62.7149H220.833V76.5487ZM230.362 43.4974C231.768 41.1503 234.811 40.3877 237.158 41.7947C239.38 43.1262 240.202 45.9454 239.042 48.262L236.427 53.4924H224.365L230.362 43.4974ZM243.889 122.661H230.055V85.7713H243.889V122.661ZM253.112 76.5487H230.055V62.7149H253.112V76.5487Z" fill="#ffffff"></path> <path d="M163.923 33.7383C159.378 38.3052 155.448 43.4456 152.232 49.0287L160.226 53.6307C163.04 48.7422 166.481 44.2422 170.461 40.2448L163.923 33.7383Z" fill="#ffffff"></path> <path d="M216.221 150.336C210.604 150.34 205.011 149.612 199.582 148.172L197.209 157.084C203.412 158.729 209.804 159.561 216.221 159.558H216.291L216.221 150.336Z" fill="#ffffff"></path> <path d="M216.217 12H216.008L216.217 21.2226C221.79 21.2185 227.341 21.9344 232.73 23.3524L235.085 14.4359C228.927 12.8151 222.585 11.996 216.217 12Z" fill="#ffffff"></path> <path d="M170.635 131.492L164.123 138.022C168.685 142.573 173.821 146.508 179.402 149.728L184.009 141.74C179.125 138.92 174.629 135.475 170.635 131.492Z" fill="#ffffff"></path> <path d="M144.89 66.8242C143.271 72.9296 142.449 79.2188 142.443 85.5351L142.434 85.9045L151.658 85.7651C151.654 80.1698 152.377 74.5983 153.807 69.1887L144.89 66.8242Z" fill="#ffffff"></path> <path d="M153.88 102.613L144.973 105.009C146.649 111.234 149.14 117.211 152.378 122.785L160.354 118.152C157.521 113.28 155.345 108.055 153.88 102.613Z" fill="#ffffff"></path> <path d="M248.536 141.672C243.659 144.499 238.432 146.67 232.988 148.132L235.379 157.039C241.604 155.367 247.583 152.883 253.16 149.651L248.536 141.672Z" fill="#ffffff"></path> <path d="M272.151 118.027C269.327 122.911 265.877 127.404 261.889 131.393L268.414 137.913C272.968 133.355 276.909 128.221 280.136 122.643L272.151 118.027Z" fill="#ffffff"></path> <path d="M196.926 14.5508C190.702 16.2333 184.727 18.7297 179.156 21.9744L183.795 29.9449C188.665 27.1079 193.889 24.925 199.331 23.4534L196.926 14.5508Z" fill="#ffffff"></path> <path d="M279.984 48.6445L272.018 53.2915C274.859 58.1599 277.047 63.381 278.525 68.8206L287.423 66.4025C285.734 60.1819 283.233 54.2115 279.984 48.6445Z" fill="#ffffff"></path> <path d="M280.777 85.7829C280.781 91.4225 280.047 97.0379 278.596 102.487L287.508 104.865C289.165 98.6397 290.003 92.2248 290 85.7829V85.5039L280.777 85.7829Z" fill="#ffffff"></path> <path d="M252.901 21.75L248.312 29.7477C253.204 32.5565 257.708 35.9925 261.709 39.9674L268.207 33.424C263.636 28.8831 258.49 24.9583 252.901 21.75Z" fill="#ffffff"></path> <path d="M152.42 155.002L124.753 150.391L123.235 159.487L140.275 162.326L113.234 182.606H68.6588C67.8421 182.606 67.0403 182.822 66.3353 183.234L11 215.513L15.6476 223.479L69.9068 191.829H114.772C115.77 191.828 116.741 191.504 117.54 190.905L145.222 170.144L142.503 186.459L151.6 187.977L156.211 160.309C156.628 157.797 154.932 155.422 152.42 155.002Z" fill="#ffffff"></path> </g> <defs> <clipPath id="clip0"> <rect width="300" height="300" fill="white"></rect> </clipPath> </defs> </svg>

<svg xmlns="http://www.w3.org/2000/svg" width="300" height="300" fill="none"><g clip-path="url(#clip0)" fill="#fff"><path d="M68.656 242.559h-36.89a4.611 4.611 0 00-4.612 4.611v36.89a4.611 4.611 0 004.612 4.611h36.89a4.611 4.611 0 004.611-4.611v-36.89a4.61 4.61 0 00-4.611-4.611zm-4.612 36.89H36.377v-27.668h27.667v27.668zm73.786-50.726h-36.891a4.61 4.61 0 00-4.61 4.611v50.724a4.61 4.61 0 004.61 4.611h36.891a4.611 4.611 0 004.611-4.611v-50.724a4.61 4.61 0 00-4.611-4.611zm-4.612 50.724h-27.667v-41.502h27.667v41.502zm73.778-69.174h-36.891a4.612 4.612 0 00-4.611 4.612v69.169a4.612 4.612 0 004.611 4.611h36.891a4.612 4.612 0 004.611-4.611v-69.169a4.611 4.611 0 00-4.611-4.612zm-4.612 69.17h-27.667v-59.947h27.667v59.947zm73.78-110.662h-36.891a4.612 4.612 0 00-4.611 4.612v110.67a4.611 4.611 0 004.611 4.611h36.891a4.611 4.611 0 004.611-4.611v-110.67a4.61 4.61 0 00-4.611-4.612zm-4.612 110.671h-27.667V178.004h27.667v101.448zm-13.829-225.96h-10.984l.552-1.105c3.502-7.004.663-15.52-6.341-19.021-6.626-3.313-14.685-.966-18.497 5.385l-6.086 10.145-6.086-10.145c-4.03-6.713-12.74-8.888-19.453-4.858-6.35 3.812-8.695 11.87-5.385 18.494l.553 1.105h-11.277a4.612 4.612 0 00-4.612 4.612V81.16a4.612 4.612 0 004.612 4.611h4.611v41.502a4.612 4.612 0 004.611 4.611h64.558a4.611 4.611 0 004.611-4.611V85.771h4.612a4.612 4.612 0 004.611-4.611V58.104a4.61 4.61 0 00-4.61-4.612zm-55.336 69.169h-13.833v-36.89h13.833v36.89zm0-46.112h-23.056V62.715h23.056v13.834zm-6.078-23.057l-2.615-5.23a4.955 4.955 0 018.68-4.765l5.995 9.995h-12.06zm24.524 69.169h-9.223v-36.89h9.223v36.89zm0-46.112h-9.223V62.715h9.223v13.834zm9.529-33.052a4.954 4.954 0 018.68 4.765l-2.615 5.23h-12.062l5.997-9.995zm13.527 79.164h-13.834v-36.89h13.834v36.89zm9.223-46.112h-23.057V62.715h23.057v13.834zm-89.189-42.811a74.129 74.129 0 00-11.691 15.29l7.994 4.603a64.769 64.769 0 0110.235-13.386l-6.538-6.507zm52.298 116.598a64.72 64.72 0 01-16.639-2.164l-2.373 8.912a74.04 74.04 0 0019.012 2.474h.07l-.07-9.222zM216.217 12h-.209l.209 9.223a64.71 64.71 0 0116.513 2.13l2.355-8.917A73.947 73.947 0 00216.217 12zm-45.582 119.492l-6.512 6.53a73.985 73.985 0 0015.279 11.706l4.607-7.988a64.89 64.89 0 01-13.374-10.248zM144.89 66.824a73.27 73.27 0 00-2.447 18.711l-.009.37 9.224-.14a64.679 64.679 0 012.149-16.576l-8.917-2.365zm8.99 35.789l-8.907 2.396a73.361 73.361 0 007.405 17.776l7.976-4.633a64.015 64.015 0 01-6.474-15.539zm94.656 39.059a64.205 64.205 0 01-15.548 6.46l2.391 8.907a73.476 73.476 0 0017.781-7.388l-4.624-7.979zm23.615-23.645a64.74 64.74 0 01-10.262 13.366l6.525 6.52a74.117 74.117 0 0011.722-15.27l-7.985-4.616zM196.926 14.55a73.332 73.332 0 00-17.77 7.424l4.639 7.97a64.114 64.114 0 0115.536-6.49l-2.405-8.903zm83.058 34.095l-7.966 4.646a64.22 64.22 0 016.507 15.53l8.898-2.418a73.37 73.37 0 00-7.439-17.759zm.793 37.138a64.738 64.738 0 01-2.181 16.704l8.912 2.378A74.054 74.054 0 00290 85.783v-.28l-9.223.28zM252.901 21.75l-4.589 7.998a64.765 64.765 0 0113.397 10.22l6.498-6.544a73.971 73.971 0 00-15.306-11.674zM152.42 155.002l-27.667-4.611-1.518 9.096 17.04 2.839-27.041 20.28H68.659c-.817 0-1.619.216-2.324.628L11 215.513l4.648 7.966 54.259-31.65h44.865a4.622 4.622 0 002.768-.924l27.682-20.761-2.719 16.315 9.097 1.518 4.611-27.668a4.614 4.614 0 00-3.791-5.307z"/></g><defs><clipPath id="clip0"><path fill="#fff" d="M0 0h300v300H0z"/></clipPath></defs></svg>
